src/icons/main-notes.svg

<svg enable-background="new 0 0 14 14" viewBox="0 0 14 14" xmlns="http://www.w3.org/2000/svg"><path d="m2.2 0c-1.2 0-2.2 1-2.2 2.2v9.7c0 1.1 1 2.1 2.2 2.1h7c.6 0 1.4-.8 2.3-1.8l.4-.4s.3-.3.4-.4c.9-.9 1.8-1.7 1.8-2.3v-7c-.1-1.1-1.1-2.1-2.3-2.1zm0 1.1h9.7c.6 0 1.1.5 1.1 1.1v7c0 .5-.5.5-1.1.5h-1.6c-.3 0-.5.2-.5.5v1.6c0 .5 0 .9-.4 1h-7.2c-.6 0-1.1-.5-1.1-1.1v-9.5c0-.6.5-1.1 1.1-1.1zm1.5 3.2c-.3 0-.5.3-.5.6s.3.5.6.5h6.5c.2 0 .4-.1.5-.3s.1-.4 0-.5c-.1-.2-.3-.3-.5-.3h-6.5zm0 2.7c-.3 0-.5.3-.5.6s.3.5.6.5h5.4c.2 0 .4-.1.5-.3s.1-.4 0-.5c-.2-.2-.4-.3-.5-.3h-5.4z" fill="#4d5969"/></svg>

<?xml version="1.0" encoding="utf-8"?>
<!-- Generator: Adobe Illustrator 20.1.0, SVG Export Plug-In . SVG Version: 6.00 Build 0)  -->
<svg version="1.1" id="Layer_1" xmlns="http://www.w3.org/2000/svg" xmlns:xlink="http://www.w3.org/1999/xlink" x="0px" y="0px"
	 viewBox="0 0 14 14" style="enable-background:new 0 0 14 14;" xml:space="preserve">
<style type="text/css">
	.st0{fill:#4D5969;}
</style>
<title>HDL/Icon/Standard/notes</title>
<desc>Created with Sketch.</desc>
<g id="Colors">
	<g id="Main-Icons" transform="translate(-624.000000, -1439.000000)">
		<g id="Notes" transform="translate(603.000000, 1422.000000)">
			<g id="HDL_x2F_Icon_x2F_Standard_x2F_notes" transform="translate(21.000000, 17.000000)">
				<path id="Shape" class="st0" d="M2.2,0C1,0,0,1,0,2.2v9.7C0,13,1,14,2.2,14h7c0.6,0,1.4-0.8,2.3-1.8c0.1-0.1,0.3-0.3,0.4-0.4
					s0.3-0.3,0.4-0.4c0.9-0.9,1.8-1.7,1.8-2.3v-7C14,1,13,0,11.8,0H2.2z M2.2,1.1h9.7c0.6,0,1.1,0.5,1.1,1.1v7
					c0,0.5-0.5,0.5-1.1,0.5h-1.6c-0.3,0-0.5,0.2-0.5,0.5v1.6c0,0.5,0,0.9-0.4,1H2.2c-0.6,0-1.1-0.5-1.1-1.1V2.2
					C1.1,1.6,1.6,1.1,2.2,1.1z M3.7,4.3c-0.3,0-0.5,0.3-0.5,0.6c0,0.3,0.3,0.5,0.6,0.5h6.5c0.2,0,0.4-0.1,0.5-0.3
					c0.1-0.2,0.1-0.4,0-0.5c-0.1-0.2-0.3-0.3-0.5-0.3H3.8C3.8,4.3,3.7,4.3,3.7,4.3C3.7,4.3,3.7,4.3,3.7,4.3z M3.7,7
					C3.4,7,3.2,7.3,3.2,7.6c0,0.3,0.3,0.5,0.6,0.5h5.4c0.2,0,0.4-0.1,0.5-0.3c0.1-0.2,0.1-0.4,0-0.5C9.5,7.1,9.3,7,9.2,7H3.8
					C3.8,7,3.7,7,3.7,7C3.7,7,3.7,7,3.7,7z"/>
			</g>
		</g>
	</g>
</g>
</svg>
